X: 1
T: Grandfather's Clock
C: Henry Clay Work (1876)
M: C
L: 1/8
Z: 2011 John Chambers <jc:trillian.mit.edu>
S: printed MS of unknown origin
K: Ab
E-E |\
"Ab"A2 GA "Eb7"B2 AB | "Ab"c2d>c "Db"F2 BB | "Ab"A2 AA "Eb7"G2 FG | "Ab"A6 :|
Ac |\
"Ab"e2 c>B "Fm"A2GA | "Bb"BA GF "Eb"E2 Ac | "Ab"e2 "C7"c>B "Fm"A2 "Bb7"GA | "Eb7"B6 EE |
"Ab"A2 z2 "Eb7"B2 z2 | "Ab"(3ccc "(F7)"d>c "Bbm"F2 "Db"BB | "Ab"A4 "Eb7"G4 | "Ab"A6 |]
EE |\
"Ab"A2 EE FE E2 | Cz Ez Cz EE | "Ab"A2 EE FE E2 | Cz Ez Cz EE |
"Ab"A2 z2 "Eb7"B2 z2 | "Ab"(3ccc "(F7)"d>c "Bbm"F2 "Db"BB | "Ab"A4 "Eb7"G4 | "Ab"A6 |]
